X:1
T:[ID 2-93]
T:[ID 2-93]
T:Bezeichnung standardisiert: Polonaise Polonoise
T:Urheber unbekannt Datum in der hier transkribierten schriftlichen Quelle: 1767
C:Urheber unbekannt
C:Datum in der hier transkribierten schriftlichen Quelle: 1767
L:1/8
M:3/4
K:F
V:1 treble 
V:1
 F/G/A/B/ cc c2 | ca/c/ cB{B}BA |!p! F/G/A/B/ cc c2 | ca/c/ cB{B}BA | (ba)(ag)(gf) | %5
 g/f/e/f/{f} g4 :| c/d/e/f/ gg g2 | gc'/g/ gf{g}fe |!p! c/d/e/f/ gg g2 | gc'/g/ gf{f}fe | %10
 G/A/B/c/ d>e f>g | g/f/e/d/{d} c4 | c'/b/a/b/ c'Ac'A | b/a/g/a/ bGbG | a/g/f/e/ f>d c/B/A/G/ | %15
{G} F6 :| %16

